!!!OTL: Treu bis in den Tod (2-49), S. 134
!!!id: K1131
**kern
*clefG2
*k[b-]
*F:
{8c
=1
8f
8g
4a
4a
=2
8g
8f
4g}
8r
=3
{8f
=4
8e
8f
4b-
4b-
=5
8a
8g
4a}
8r
=6
{8cc
=7
8cc
8cc
8.b-
16a
8g
8cc
=8
8cc
8cc
8.a
16g
8f}
=9
{8a
=10
8a
8a
8.g
8a
16b-
8dd
=11
8cc
16cc
16b-
4a}
8r
==
*-
!!!minrhy: 16
!!!meters: 3/4 ]  ZZ[4
!!!cut: Treu bis in den Tod (2-49), S. 134
!!!reg: Luxemburg
!!!trd: KINTZELE, Guillaume: An der Ucht, Bd. 2, Luxemburg 1927
!!!rhy1: X_  X_X_X__X__  X_X_X__0   (x2)
!!!rhy2: X_  X_X_X__X__  X_X_X__0
!!!key: K1131  16  F 3/4 ]  ZZ[4
!!!mod: HEPTATONIK IONISCH]  AMBITUS[9
!!!kad: 2313
!!!akz: 12_-73_55_35_
!!!fot: 'a__b__c__d__
!!!for: 'a__a__b__c__
!!!fok: '/__/__\__^__
!! PHRAS[AUFTAKTIG]
!!!fkt: Treue, Trennungsschmerz, Tod
!!!bem: in der Quelle mit einer 2. Stimme versehen
!! KINTZELE
!! PR[33] 2K[4] 2G[4] 3K[8] 3G[0] 4A[4] 4Ü[0] 5A[0] 6K[0] 6G[4]
!! 7K[0] 7G[0] 8A[0] MEHR[0] SI[25] ABS[24] SR[8] SP[17]
!! ST[8] 2k[8] 2g[21] 3k[8] 3g[0] 4d[0] 4ü[0] 5d[0] 6k[0] 6g[0]
!! 7k[0] 7g[0] 8d[4] mehr[0] si[42] dm[-17] sr[29] sp[13]
!! 1F[15] 2F[67] 3F[11] 4F[0] LF[0] 2P[0] 3P[7] 4P[0] TRI[0] DF[4] AB[27]
!! TF[0] U3K[0] U3[0] U4[0] U4Ü[0] U5[0] U6K[0] U6[0] U7K[0] U7[4]
!! N1[20] N2K[0] N2[16] N3K[0] N3[8] N4[16] N4Ü[0] N5[24] N6K[0] N6[4]
!!!n7k: 0] N7[4] O1[4] O2K[0] O2[0] O3K[0] O3[0] HÖ[0
